!!!COM: Bach, Johann Sebastian
!!!CDT: 1685/3//-1750/7/28/
!!!OTL@@DE: Ich dank' dir, lieber Herre
!!!OTL@EN:  I thank Thee, dear Lord
!!!AGN: 4-Part Chorale
!!!SCT: BH 002
!!!SCT: BWV 347
**harm	**root	**kern	**kern	**kern	**kern
*	*Iorgan	*Iorgan	*Iorgan	*Iorgan	*Iorgan
!	!	!bass	!tenor	!alto	!sprno
*	*	*clefF4	*clefF4	*clefG2	*clefG2
*k[f#c#g#d#a#e#b#]	*k[f#c#g#d#a#e#b#]	*k[f#c#g#d#a#e#b#]	*k[f#c#g#d#a#e#b#]	*k[f#c#g#d#a#e#b#]	*k[f#c#g#d#a#e#b#]
*C#:	*C#:	*C#:	*C#:	*C#:	*C#:
*met(c)	*met(c)	*met(c)	*met(c)	*met(c)	*met(c)
*M4/4	*M4/4	*M4/4	*M4/4	*M4/4	*M4/4
*MM60	*MM60	*MM60	*MM60	*MM60	*MM60
*>[A,A,B]	*>[A,A,B]	*>[A,A,B]	*>[A,A,B]	*>[A,A,B]	*>[A,A,B]
*>A	*>A	*>A	*>A	*>A	*>A
I	4AA	8c#	4e#	4g#	4cc#
.	.	8B#	.	.	.
=1	=1	=1	=1	=1	=1
vi	4FF#	4A#	4e#	4a#	4cc#
Ib	4AA	4E#	8e#	4g#	4cc#
.	.	.	8d#	.	.
IV	4DD	4F#	8c#	4a#	4cc#
.	.	.	8B#	.	.
Vb/V	4BB	4F##	4A#	4a#	4dd#
=2	=2	=2	=2	=2	=2
v	4EE	4G#	4.d#	4g#	4b
V7/V	4BB	4D#	.	4f##	4a#
.	.	.	8c#	.	.
V;	4EE;	4GG#;	4B#y;	4d#;	4g#;
V	4EE	4G#	4g#	4b#y	4dd#
=3	=3	=3	=3	=3	=3
I	4AA	4c#	4g#	4cc#	4ee#
V/V	4BB	4d#	4f##	8b#	4dd#
.	.	.	.	8a#	.
Ib	4AA	4e#	2e#	[2g#	4cc#
V7c/VI	8CC#	8d#	.	.	8b#
vi7b	8FF#	8c#	.	.	8a#
=4	=4	=4	=4	=4	=4
V	4EE	4d#	4.d#	4g#]	4b#
V7/V	4BB	4D#	.	4f##	4a#
.	.	.	8c#	.	.
V;	4EE;	4G#;	4B#;	4d#;	4g#;
=:|!	=:|!	=:|!	=:|!	=:|!	=:|!
*>B	*>B	*>B	*>B	*>B	*>B
iii	4CC#	4E#	4B#	8ee#	4gg#
.	.	.	.	8dd#	.
=5	=5	=5	=5	=5	=5
IVb	4DD	8A#	8c#	4cc#	4ff#
.	.	8B#	8d#	.	.
I	4AA	4c#	8e#	4cc#	4ee#
.	.	.	8f#	.	.
V	4EE	4G#	4g#	4b#	4dd#
Ib	8AA	8E#	4g#	8cc#	4cc#
V7/IV	8AA	8C#	.	8b	.
=6	=6	=6	=6	=6	=6
IV	4DD	4F#	4f#	8a#	8cc#
.	.	.	.	8b#y	8dd#
Ib	4AA	8E#	4g#	4cc#	4ee#
.	.	8F#	.	.	.
V;	4EE;	4G#;	4g#;	4b#;	4dd#;
viio/II	4AA#	4E#	4g#	4cc##	4ee#
!!linebreak: 2
=7	=7	=7	=7	=7	=7
ii	8BB	4D#	8a#	8dd#	4ff#
ii7	8BB	.	4d#	8cc#	.
viiD7b/II	4AA#	4E#	.	4b	4ee#
.	.	.	8c##	.	.
iib	8BB	8F#	4d#	8a#	4dd#
v	8EE	8B	.	8g#	.
V/II	4FF#	4A#	4e#	4a#	4cc##
=8	=8	=8	=8	=8	=8
ii;	2.BB;	2.D#;	2.f#;	2.a#;	2.dd#;
iii	4CC#	4E#	4B#	8g#	4g#
.	.	.	.	8f#	.
=9	=9	=9	=9	=9	=9
vi	4FF#	4A#	4c#	4e#	4cc#
V7	8EE	8G#	8B#	4f#	4dd#
iib	8BB	8F#	8A#	.	.
iii	4CC#	4E#	8G#	4g#	4ee#
.	.	.	8g#	.	.
ii	8BB	4D#	4f#	8a#	4ff#
viiob	8GG#	.	.	8b#	.
=10	=10	=10	=10	=10	=10
I	4AA	8C#	8e#	2cc#	4gg#
.	.	8D#	8f#	.	.
I9b	8AA	8E#	8g#	.	8ff#
IV7	8DD	8F#	8a#	.	8ee#
V;	4EE;	4G#;	4b#;	4g#;	4dd#;
ii	4BB	4D#	4a#	4dd#	4ff#
=11	=11	=11	=11	=11	=11
vi	8FF#	8A#	8a#	8cc#	4ee#
iiic	8CC#	8B#	8g#	8b#	.
ii7d	4BB	4c#	8f#	4a#	4dd#
.	.	.	8e#	.	.
Vb	4EE	8B#	4d#	4g#	4.gg#
.	.	8G#	.	.	.
vi7b	8FF#	[4c#	8e#	8a#	.
viioc	8GG#	.	8f#	8b#	8ff#
=12	=12	=12	=12	=12	=12
I	4AA	8c#]	4.g#	2cc#	8ee#
.	.	8B#	.	.	8dd#
ii7c	4BB	4A#	.	.	8cc#
.	.	.	8f#	.	8dd#
Ic	8AA	8G#	8e#	4cc#	4ee#
IV7	8DD	8F#	8a#	.	.
V	4EE	4G#	8d#	4b#	4dd#
.	.	.	16g#	.	.
.	.	.	16f#	.	.
=13	=13	=13	=13	=13	=13
I;	2.AA;	2.C#;	2.e#;	2.g#;	2.cc#;
==	==	==	==	==	==
*-	*-	*-	*-	*-	*-
!!chor2scor: -l 2 -s 0.6 -o %b.pmx
!!!YEC: Copyright 2001 by Craig Stuart Sapp
!!!license: GNU General Public License (http://www.gnu.org/copyleft/gpl.html)
!!!SMA: 371 Bach Chorales, edited by Ludwig Erk, C.F. Peters
!!!PDT: 1850, 1865
!!!ONB: Harmony and Root analysis done manually by Craig Sapp (not proofed yet)
